symbols/web/phone_paused/materialsymbolsoutlined/phone_paused_wght300grad200_48px.svg

<svg xmlns="http://www.w3.org/2000/svg" height="48" width="48"><path d="M30.7 19.7V6.15h2.9V19.7Zm7.85 0V6.15h2.95V19.7Zm.95 22q-5.95 0-11.9-2.975T16.9 31q-4.75-4.75-7.725-10.7Q6.2 14.35 6.2 8.35q0-1 .6-1.6.6-.6 1.6-.6h6.7q.75 0 1.35.525.6.525.75 1.325l1.3 6.1q.1.75-.075 1.35-.175.6-.525.9l-4.95 4.85q2.8 4.6 6.3 8.075 3.5 3.475 7.75 5.875l4.9-5q.5-.5 1-.7.5-.2 1.1-.05l5.85 1.35q.8.15 1.35.775t.55 1.425v6.5q0 1-.625 1.625T39.5 41.7Zm-28-23.15 3.9-3.8q.1-.1.125-.225.025-.125.025-.225L14.5 9.4q-.05-.2-.15-.275-.1-.075-.2-.075h-4.7q-.15 0-.225.075-.075.075-.075.225 0 1.95.6 4.2t1.75 5Zm27.05 20.2q.1.05.175-.05.075-.1.075-.25v-4.7q0-.15-.075-.25t-.225-.15l-4.55-.9q-.1-.05-.175 0-.075.05-.175.1l-3.85 4.05q2.05 1 4.4 1.5 2.35.5 4.4.65Zm-8.8-2.15ZM11.5 18.55Z"/></svg>

<svg xmlns="http://www.w3.org/2000/svg" height="48" width="48"><path d="M30.7 19.7V6.15H33.6V19.7ZM38.55 19.7V6.15H41.5V19.7ZM39.5 41.7Q33.55 41.7 27.6 38.725Q21.65 35.75 16.9 31Q12.15 26.25 9.175 20.3Q6.2 14.35 6.2 8.35Q6.2 7.35 6.8 6.75Q7.4 6.15 8.4 6.15H15.1Q15.85 6.15 16.45 6.675Q17.05 7.2 17.2 8L18.5 14.1Q18.6 14.85 18.425 15.45Q18.25 16.05 17.9 16.35L12.95 21.2Q15.75 25.8 19.25 29.275Q22.75 32.75 27 35.15L31.9 30.15Q32.4 29.65 32.9 29.45Q33.4 29.25 34 29.4L39.85 30.75Q40.65 30.9 41.2 31.525Q41.75 32.15 41.75 32.95V39.45Q41.75 40.45 41.125 41.075Q40.5 41.7 39.5 41.7ZM11.5 18.55 15.4 14.75Q15.5 14.65 15.525 14.525Q15.55 14.4 15.55 14.3L14.5 9.4Q14.45 9.2 14.35 9.125Q14.25 9.05 14.15 9.05H9.45Q9.3 9.05 9.225 9.125Q9.15 9.2 9.15 9.35Q9.15 11.3 9.75 13.55Q10.35 15.8 11.5 18.55ZM38.55 38.75Q38.65 38.8 38.725 38.7Q38.8 38.6 38.8 38.45V33.75Q38.8 33.6 38.725 33.5Q38.65 33.4 38.5 33.35L33.95 32.45Q33.85 32.4 33.775 32.45Q33.7 32.5 33.6 32.55L29.75 36.6Q31.8 37.6 34.15 38.1Q36.5 38.6 38.55 38.75ZM29.75 36.6Q29.75 36.6 29.75 36.6Q29.75 36.6 29.75 36.6Q29.75 36.6 29.75 36.6Q29.75 36.6 29.75 36.6Q29.75 36.6 29.75 36.6Q29.75 36.6 29.75 36.6Q29.75 36.6 29.75 36.6Q29.75 36.6 29.75 36.6ZM11.5 18.55Q11.5 18.55 11.5 18.55Q11.5 18.55 11.5 18.55Q11.5 18.55 11.5 18.55Q11.5 18.55 11.5 18.55Q11.5 18.55 11.5 18.55Q11.5 18.55 11.5 18.55Q11.5 18.55 11.5 18.55Q11.5 18.55 11.5 18.55Z"/></svg>
